X: 1
T: Ewe Wi' The Crookit Horn, The
M: 4/4
L: 1/8
R: strathspey
K: Gmix
D<GG<A F>GA<F|D<G GA/B/ c>AB>G|A>Bc>B A>G F>C|D<G G>A F>AG2:|
K: Gdor
G<gg>a f>ga>f|d<g g>a f>ag2|d<gg>a b/a/g a/g/f|d<g b>g a>fg2|
f<ad<f c>BA<F|G/A/B/c/ d>B c>Ad>e|f<ad<f c<BA<F|G/A/B/c/ d>B c>A G2||
